X: 4927
T: Breakfast At The Méthés'
R: reel
M: 4/4
K: Ddorian
|:a3a- agfd|efdc- cdfa|g3g- gfg_a|gfdc fedc|
a3a- agfd|efdc- cdde|fedc Bcdc|AGEF D4:|
|:dAcd ABdB|cBAG (3 cBA GF|DFGD FGAD|BDDc DDc^c|dAcd ABdB|
cBAG (3 cBA GF|1 DFGD FG{_A}GF|GFDC D4:|2 DFGD F_AG2-|GFEF D4||

